report_00007_2020-12-11T15:55:29.892Z/first-cpu-idle/comparison/sorted/4_vs_5.svg

<svg width="640" height="500" xmlns="http://www.w3.org/2000/svg" xmlns:xlink="http://www.w3.org/1999/xlink"><path fill="#fff" d="M0 0h640v500H0z"/><defs><path id="d" stroke-width=".222" stroke="currentColor" d="M-1-1h2v2h-2z"/><path id="b" stroke-width=".222" stroke="currentColor" d="M0-1.33l-1.33 2h2.66z"/><path id="f" stroke-width=".222" stroke="currentColor" d="M0 1.33L1.265.411.782-1.067l-1.564-.009-.483 1.487z"/><use xlink:href="#b" id="c" stroke="currentColor" transform="rotate(180)"/><use xlink:href="#d" id="e" stroke="currentColor" transform="rotate(45)"/><circle id="a" stroke-width=".222" stroke="currentColor" cx="0" cy="0" r="1"/></defs><g fill="none" color="#000" stroke="currentColor"><path stroke="#000" d="M62.2 363.8h9m543.8 0h-9"/><text transform="translate(53.9 367.7)" stroke="none" fill="#000" font-family="Arial" font-size="12" text-anchor="end"><tspan>1850</tspan></text></g><g fill="none" color="#000" stroke="currentColor"><path stroke="#000" d="M62.2 281.4h9m543.8 0h-9"/><text transform="translate(53.9 285.3)" stroke="none" fill="#000" font-family="Arial" font-size="12" text-anchor="end"><tspan>1900</tspan></text></g><g fill="none" color="#000" stroke="currentColor"><path stroke="#000" d="M62.2 199h9m543.8 0h-9"/><text transform="translate(53.9 202.9)" stroke="none" fill="#000" font-family="Arial" font-size="12" text-anchor="end"><tspan>1950</tspan></text></g><g fill="none" color="#000" stroke="currentColor"><path stroke="#000" d="M62.2 116.6h9m543.8 0h-9"/><text transform="translate(53.9 120.5)" stroke="none" fill="#000" font-family="Arial" font-size="12" text-anchor="end"><tspan>2000</tspan></text></g><g fill="none" color="#000" stroke="currentColor"><path stroke="#000" d="M62.2 34.2h9m543.8 0h-9"/><text transform="translate(53.9 38.1)" stroke="none" fill="#000" font-family="Arial" font-size="12" text-anchor="end"><tspan>2050</tspan></text></g><g fill="none" color="#000" stroke="currentColor"><path stroke="#000" d="M62.2 428v-9m0-400.9v9"/><text transform="translate(62.2 449.9)" stroke="none" fill="#000" font-family="Arial" font-size="12" text-anchor="middle"><tspan>0</tspan></text></g><g fill="none" color="#000" stroke="currentColor"><path stroke="#000" d="M118 428v-9m0-400.9v9"/><text transform="translate(118 449.9)" stroke="none" fill="#000" font-family="Arial" font-size="12" text-anchor="middle"><tspan>10</tspan></text></g><g fill="none" color="#000" stroke="currentColor"><path stroke="#000" d="M173.9 428v-9m0-400.9v9"/><text transform="translate(173.9 449.9)" stroke="none" fill="#000" font-family="Arial" font-size="12" text-anchor="middle"><tspan>20</tspan></text></g><g fill="none" color="#000" stroke="currentColor"><path stroke="#000" d="M229.7 428v-9m0-400.9v9"/><text transform="translate(229.7 449.9)" stroke="none" fill="#000" font-family="Arial" font-size="12" text-anchor="middle"><tspan>30</tspan></text></g><g fill="none" color="#000" stroke="currentColor"><path stroke="#000" d="M285.6 428v-9m0-400.9v9"/><text transform="translate(285.6 449.9)" stroke="none" fill="#000" font-family="Arial" font-size="12" text-anchor="middle"><tspan>40</tspan></text></g><g fill="none" color="#000" stroke="currentColor"><path stroke="#000" d="M341.4 428v-9m0-400.9v9"/><text transform="translate(341.4 449.9)" stroke="none" fill="#000" font-family="Arial" font-size="12" text-anchor="middle"><tspan>50</tspan></text></g><g fill="none" color="#000" stroke="currentColor"><path stroke="#000" d="M397.2 428v-9m0-400.9v9"/><text transform="translate(397.2 449.9)" stroke="none" fill="#000" font-family="Arial" font-size="12" text-anchor="middle"><tspan>60</tspan></text></g><g fill="none" color="#000" stroke="currentColor"><path stroke="#000" d="M453.1 428v-9m0-400.9v9"/><text transform="translate(453.1 449.9)" stroke="none" fill="#000" font-family="Arial" font-size="12" text-anchor="middle"><tspan>70</tspan></text></g><g fill="none" color="#000" stroke="currentColor"><path stroke="#000" d="M508.9 428v-9m0-400.9v9"/><text transform="translate(508.9 449.9)" stroke="none" fill="#000" font-family="Arial" font-size="12" text-anchor="middle"><tspan>80</tspan></text></g><g fill="none" color="#000" stroke="currentColor"><path stroke="#000" d="M564.7 428v-9m0-400.9v9"/><text transform="translate(564.7 449.9)" stroke="none" fill="#000" font-family="Arial" font-size="12" text-anchor="middle"><tspan>90</tspan></text></g><path stroke="#000" d="M62.2 18.1V428H615V18.1H62.2z" fill="none" color="#000"/><text transform="translate(279.8 467.9)" stroke="none" fill="#000" font-family="Arial" font-size="12" text-anchor="end" color="#000"><tspan>pages+cached+noadtech</tspan></text><path stroke="#9400D3" d="M288.1 464h42.2M62.2 420.1l5.6-1 5.6-.2H79l5.5-.5 5.6-.4 5.6-.4 5.6-.2 5.6-.3 5.6-.2 5.5-.6 5.6-.7h5.6l5.6-.1 5.6-.4 5.6-.3 5.5-.6 5.6-.6 5.6-.4 5.6-.1 5.6-.2 5.6-.1 5.5-.3 5.6-.4 5.6-.3 5.6-.2 5.6-.1 5.6-.1h5.5l5.6-.1 5.6-.1 5.6-.2h5.6l5.6-1.3 5.6-.4 5.5-.1 5.6-1.7 5.6-1.4 5.6-1.8 5.6-.8 5.6-236.6 5.5-6.8 5.6-.5 5.6-.6 5.6-.1 5.6-.5 5.6-2.1 5.5-.1 5.6-.5 5.6-.6 5.6-.3 5.6-.3 5.6-108.1 5.5-1.8 5.6-.4 5.6-1.1 5.6-1.7 5.6-.7 5.6-.1 5.5-1.1 5.6-1.2 5.6-.4 5.6-1.5 5.6-.2h5.6l5.5-.3h5.6l5.6-.1 5.6-.1 5.6-.2 5.6-.1 5.6-.1 5.5-.2 5.6-.1 5.6-.1 5.6-.1 5.6-.9 5.6-.2 5.5-.4h5.6l5.6-.2h5.6l5.6-.2h5.6l5.5-.6 5.6-.2 5.6-.5h5.6l5.6-.1 5.6-.2 5.5-.2h11.2l5.6-.6 5.6-1.1 5.6-.4 5.5-2.3 5.6-.5 5.6-.1 5.6-.1" fill="none" color="#000"/><text transform="translate(279.8 485.9)" stroke="none" fill="#000" font-family="Arial" font-size="12" text-anchor="end" color="#000"><tspan>pages+cached+noexternal</tspan></text><path stroke="#009E73" d="M288.1 482h42.2M62.2 418.5l5.6-.3 5.6-.4 5.6-.3 5.5-.2 5.6-.1 5.6-.3 5.6-.1 5.6-.3 5.6-.6 5.5-.2 5.6-.1h5.6l5.6-.2 5.6-.1 5.6-.3 5.5-.7h5.6l5.6-.1h5.6l5.6-.1h5.6l5.5-.4 5.6-.1 5.6-.3h5.6l5.6-.4 5.6-.1 5.5-.2 5.6-.1h5.6l5.6-.1h5.6l5.6-.1 5.6-.3 5.5-.3 5.6-.1 5.6-.1h5.6l5.6-.4 5.6-.1 5.5-.2 5.6-.4 5.6-.9 5.6-.8 5.6-243.1 5.6-4.6 5.5-.1 5.6-.7 5.6-.4 5.6-.2 5.6-.1 5.6-4 5.5-1.2 5.6-.8 5.6-110.1 5.6-1 5.6-.3 5.6-1.4 5.5-.4 5.6-.3h5.6l5.6-.8 5.6-.3 5.6-1h5.5l5.6-1.1 5.6-.3h5.6l5.6-.5 5.6-.1 5.6-.1 5.5-.4h5.6l5.6-.2 5.6-.1h5.6l5.6-.2 5.5-.2 5.6-.1 5.6-.1h5.6l5.6-.2 5.6-.2 5.5-.1 5.6-.1 5.6-.1 5.6-.4 5.6-.2 5.6-.2 5.5-.1 5.6-.7 5.6-.4h5.6l5.6-.2h5.6l5.5-.5 5.6-3.3 5.6-.1 5.6-.7" fill="none" color="#000"/><text transform="translate(529.5 467.9)" stroke="none" fill="#000" font-family="Arial" font-size="12" text-anchor="end" color="#000"><tspan>score p10=3572</tspan></text><path stroke="#56B4E9" d="M537.8 464H580" fill="none" color="#000"/><g><text transform="translate(529.5 485.9)" stroke="none" fill="#000" font-family="Arial" font-size="12" text-anchor="end" color="#000"><tspan>score median=6500</tspan></text><path stroke="#E69F00" d="M537.8 482H580" fill="none" color="#000"/></g><g fill="none" color="#000" stroke="currentColor"><path stroke="#000" d="M62.2 18.1V428H615V18.1H62.2z"/></g></svg>

<?xml version="1.0" encoding="utf-8"  standalone="no"?>
<svg 
 width="640" height="500"
 viewBox="0 0 640 500"
 xmlns="http://www.w3.org/2000/svg"
 xmlns:xlink="http://www.w3.org/1999/xlink"
>

<title>Gnuplot</title>
<desc>Produced by GNUPLOT 5.4 patchlevel 0 </desc>

<g id="gnuplot_canvas">

<rect x="0" y="0" width="640" height="500" fill="#ffffff"/>
<defs>

	<circle id='gpDot' r='0.5' stroke-width='0.5' stroke='currentColor'/>
	<path id='gpPt0' stroke-width='0.222' stroke='currentColor' d='M-1,0 h2 M0,-1 v2'/>
	<path id='gpPt1' stroke-width='0.222' stroke='currentColor' d='M-1,-1 L1,1 M1,-1 L-1,1'/>
	<path id='gpPt2' stroke-width='0.222' stroke='currentColor' d='M-1,0 L1,0 M0,-1 L0,1 M-1,-1 L1,1 M-1,1 L1,-1'/>
	<rect id='gpPt3' stroke-width='0.222' stroke='currentColor' x='-1' y='-1' width='2' height='2'/>
	<rect id='gpPt4' stroke-width='0.222' stroke='currentColor' fill='currentColor' x='-1' y='-1' width='2' height='2'/>
	<circle id='gpPt5' stroke-width='0.222' stroke='currentColor' cx='0' cy='0' r='1'/>
	<use xlink:href='#gpPt5' id='gpPt6' fill='currentColor' stroke='none'/>
	<path id='gpPt7' stroke-width='0.222' stroke='currentColor' d='M0,-1.33 L-1.33,0.67 L1.33,0.67 z'/>
	<use xlink:href='#gpPt7' id='gpPt8' fill='currentColor' stroke='none'/>
	<use xlink:href='#gpPt7' id='gpPt9' stroke='currentColor' transform='rotate(180)'/>
	<use xlink:href='#gpPt9' id='gpPt10' fill='currentColor' stroke='none'/>
	<use xlink:href='#gpPt3' id='gpPt11' stroke='currentColor' transform='rotate(45)'/>
	<use xlink:href='#gpPt11' id='gpPt12' fill='currentColor' stroke='none'/>
	<path id='gpPt13' stroke-width='0.222' stroke='currentColor' d='M0,1.330 L1.265,0.411 L0.782,-1.067 L-0.782,-1.076 L-1.265,0.411 z'/>
	<use xlink:href='#gpPt13' id='gpPt14' fill='currentColor' stroke='none'/>
	<filter id='textbox' filterUnits='objectBoundingBox' x='0' y='0' height='1' width='1'>
	  <feFlood flood-color='#FFFFFF' flood-opacity='1' result='bgnd'/>
	  <feComposite in='SourceGraphic' in2='bgnd' operator='atop'/>
	</filter>
	<filter id='greybox' filterUnits='objectBoundingBox' x='0' y='0' height='1' width='1'>
	  <feFlood flood-color='lightgrey' flood-opacity='1' result='grey'/>
	  <feComposite in='SourceGraphic' in2='grey' operator='atop'/>
	</filter>
</defs>
<g fill="none" color="#FFFFFF" stroke="black" stroke-width="1.00" stroke-linecap="butt" stroke-linejoin="miter">
</g>
<g fill="none" color="black" stroke="currentColor" stroke-width="1.00" stroke-linecap="butt" stroke-linejoin="miter">
	<path stroke='black'  d='M62.2,363.8 L71.2,363.8 M615.0,363.8 L606.0,363.8  '/>	<g transform="translate(53.9,367.7)" stroke="none" fill="black" font-family="Arial" font-size="12.00"  text-anchor="end">
		<text><tspan font-family="Arial" > 1850</tspan></text>
	</g>
</g>
<g fill="none" color="black" stroke="currentColor" stroke-width="1.00" stroke-linecap="butt" stroke-linejoin="miter">
	<path stroke='black'  d='M62.2,281.4 L71.2,281.4 M615.0,281.4 L606.0,281.4  '/>	<g transform="translate(53.9,285.3)" stroke="none" fill="black" font-family="Arial" font-size="12.00"  text-anchor="end">
		<text><tspan font-family="Arial" > 1900</tspan></text>
	</g>
</g>
<g fill="none" color="black" stroke="currentColor" stroke-width="1.00" stroke-linecap="butt" stroke-linejoin="miter">
	<path stroke='black'  d='M62.2,199.0 L71.2,199.0 M615.0,199.0 L606.0,199.0  '/>	<g transform="translate(53.9,202.9)" stroke="none" fill="black" font-family="Arial" font-size="12.00"  text-anchor="end">
		<text><tspan font-family="Arial" > 1950</tspan></text>
	</g>
</g>
<g fill="none" color="black" stroke="currentColor" stroke-width="1.00" stroke-linecap="butt" stroke-linejoin="miter">
	<path stroke='black'  d='M62.2,116.6 L71.2,116.6 M615.0,116.6 L606.0,116.6  '/>	<g transform="translate(53.9,120.5)" stroke="none" fill="black" font-family="Arial" font-size="12.00"  text-anchor="end">
		<text><tspan font-family="Arial" > 2000</tspan></text>
	</g>
</g>
<g fill="none" color="black" stroke="currentColor" stroke-width="1.00" stroke-linecap="butt" stroke-linejoin="miter">
	<path stroke='black'  d='M62.2,34.2 L71.2,34.2 M615.0,34.2 L606.0,34.2  '/>	<g transform="translate(53.9,38.1)" stroke="none" fill="black" font-family="Arial" font-size="12.00"  text-anchor="end">
		<text><tspan font-family="Arial" > 2050</tspan></text>
	</g>
</g>
<g fill="none" color="black" stroke="currentColor" stroke-width="1.00" stroke-linecap="butt" stroke-linejoin="miter">
	<path stroke='black'  d='M62.2,428.0 L62.2,419.0 M62.2,18.1 L62.2,27.1  '/>	<g transform="translate(62.2,449.9)" stroke="none" fill="black" font-family="Arial" font-size="12.00"  text-anchor="middle">
		<text><tspan font-family="Arial" > 0</tspan></text>
	</g>
</g>
<g fill="none" color="black" stroke="currentColor" stroke-width="1.00" stroke-linecap="butt" stroke-linejoin="miter">
	<path stroke='black'  d='M118.0,428.0 L118.0,419.0 M118.0,18.1 L118.0,27.1  '/>	<g transform="translate(118.0,449.9)" stroke="none" fill="black" font-family="Arial" font-size="12.00"  text-anchor="middle">
		<text><tspan font-family="Arial" > 10</tspan></text>
	</g>
</g>
<g fill="none" color="black" stroke="currentColor" stroke-width="1.00" stroke-linecap="butt" stroke-linejoin="miter">
	<path stroke='black'  d='M173.9,428.0 L173.9,419.0 M173.9,18.1 L173.9,27.1  '/>	<g transform="translate(173.9,449.9)" stroke="none" fill="black" font-family="Arial" font-size="12.00"  text-anchor="middle">
		<text><tspan font-family="Arial" > 20</tspan></text>
	</g>
</g>
<g fill="none" color="black" stroke="currentColor" stroke-width="1.00" stroke-linecap="butt" stroke-linejoin="miter">
	<path stroke='black'  d='M229.7,428.0 L229.7,419.0 M229.7,18.1 L229.7,27.1  '/>	<g transform="translate(229.7,449.9)" stroke="none" fill="black" font-family="Arial" font-size="12.00"  text-anchor="middle">
		<text><tspan font-family="Arial" > 30</tspan></text>
	</g>
</g>
<g fill="none" color="black" stroke="currentColor" stroke-width="1.00" stroke-linecap="butt" stroke-linejoin="miter">
	<path stroke='black'  d='M285.6,428.0 L285.6,419.0 M285.6,18.1 L285.6,27.1  '/>	<g transform="translate(285.6,449.9)" stroke="none" fill="black" font-family="Arial" font-size="12.00"  text-anchor="middle">
		<text><tspan font-family="Arial" > 40</tspan></text>
	</g>
</g>
<g fill="none" color="black" stroke="currentColor" stroke-width="1.00" stroke-linecap="butt" stroke-linejoin="miter">
	<path stroke='black'  d='M341.4,428.0 L341.4,419.0 M341.4,18.1 L341.4,27.1  '/>	<g transform="translate(341.4,449.9)" stroke="none" fill="black" font-family="Arial" font-size="12.00"  text-anchor="middle">
		<text><tspan font-family="Arial" > 50</tspan></text>
	</g>
</g>
<g fill="none" color="black" stroke="currentColor" stroke-width="1.00" stroke-linecap="butt" stroke-linejoin="miter">
	<path stroke='black'  d='M397.2,428.0 L397.2,419.0 M397.2,18.1 L397.2,27.1  '/>	<g transform="translate(397.2,449.9)" stroke="none" fill="black" font-family="Arial" font-size="12.00"  text-anchor="middle">
		<text><tspan font-family="Arial" > 60</tspan></text>
	</g>
</g>
<g fill="none" color="black" stroke="currentColor" stroke-width="1.00" stroke-linecap="butt" stroke-linejoin="miter">
	<path stroke='black'  d='M453.1,428.0 L453.1,419.0 M453.1,18.1 L453.1,27.1  '/>	<g transform="translate(453.1,449.9)" stroke="none" fill="black" font-family="Arial" font-size="12.00"  text-anchor="middle">
		<text><tspan font-family="Arial" > 70</tspan></text>
	</g>
</g>
<g fill="none" color="black" stroke="currentColor" stroke-width="1.00" stroke-linecap="butt" stroke-linejoin="miter">
	<path stroke='black'  d='M508.9,428.0 L508.9,419.0 M508.9,18.1 L508.9,27.1  '/>	<g transform="translate(508.9,449.9)" stroke="none" fill="black" font-family="Arial" font-size="12.00"  text-anchor="middle">
		<text><tspan font-family="Arial" > 80</tspan></text>
	</g>
</g>
<g fill="none" color="black" stroke="currentColor" stroke-width="1.00" stroke-linecap="butt" stroke-linejoin="miter">
	<path stroke='black'  d='M564.7,428.0 L564.7,419.0 M564.7,18.1 L564.7,27.1  '/>	<g transform="translate(564.7,449.9)" stroke="none" fill="black" font-family="Arial" font-size="12.00"  text-anchor="middle">
		<text><tspan font-family="Arial" > 90</tspan></text>
	</g>
</g>
<g fill="none" color="black" stroke="currentColor" stroke-width="1.00" stroke-linecap="butt" stroke-linejoin="miter">
</g>
<g fill="none" color="black" stroke="currentColor" stroke-width="1.00" stroke-linecap="butt" stroke-linejoin="miter">
	<path stroke='black'  d='M62.2,18.1 L62.2,428.0 L615.0,428.0 L615.0,18.1 L62.2,18.1 Z  '/></g>
<g fill="none" color="black" stroke="currentColor" stroke-width="1.00" stroke-linecap="butt" stroke-linejoin="miter">
</g>
	<g id="gnuplot_plot_1" ><title>pages+cached+noadtech</title>
<g fill="none" color="black" stroke="currentColor" stroke-width="1.00" stroke-linecap="butt" stroke-linejoin="miter">
	<g transform="translate(279.8,467.9)" stroke="none" fill="black" font-family="Arial" font-size="12.00"  text-anchor="end">
		<text><tspan font-family="Arial" >pages+cached+noadtech</tspan></text>
	</g>
</g>
<g fill="none" color="black" stroke="currentColor" stroke-width="1.00" stroke-linecap="butt" stroke-linejoin="miter">
	<path stroke='rgb(148,   0, 211)'  d='M288.1,464.0 L330.3,464.0 M62.2,420.1 L67.8,419.1 L73.4,418.9 L79.0,418.9 L84.5,418.4 L90.1,418.0
		L95.7,417.6 L101.3,417.4 L106.9,417.1 L112.5,416.9 L118.0,416.3 L123.6,415.6 L129.2,415.6 L134.8,415.5
		L140.4,415.1 L146.0,414.8 L151.5,414.2 L157.1,413.6 L162.7,413.2 L168.3,413.1 L173.9,412.9 L179.5,412.8
		L185.0,412.5 L190.6,412.1 L196.2,411.8 L201.8,411.6 L207.4,411.5 L213.0,411.4 L218.5,411.4 L224.1,411.3
		L229.7,411.2 L235.3,411.0 L240.9,411.0 L246.5,409.7 L252.1,409.3 L257.6,409.2 L263.2,407.5 L268.8,406.1
		L274.4,404.3 L280.0,403.5 L285.6,166.9 L291.1,160.1 L296.7,159.6 L302.3,159.0 L307.9,158.9 L313.5,158.4
		L319.1,156.3 L324.6,156.2 L330.2,155.7 L335.8,155.1 L341.4,154.8 L347.0,154.5 L352.6,46.4 L358.1,44.6
		L363.7,44.2 L369.3,43.1 L374.9,41.4 L380.5,40.7 L386.1,40.6 L391.6,39.5 L397.2,38.3 L402.8,37.9
		L408.4,36.4 L414.0,36.2 L419.6,36.2 L425.1,35.9 L430.7,35.9 L436.3,35.8 L441.9,35.7 L447.5,35.5
		L453.1,35.4 L458.7,35.3 L464.2,35.1 L469.8,35.0 L475.4,34.9 L481.0,34.8 L486.6,33.9 L492.2,33.7
		L497.7,33.3 L503.3,33.3 L508.9,33.1 L514.5,33.1 L520.1,32.9 L525.7,32.9 L531.2,32.3 L536.8,32.1
		L542.4,31.6 L548.0,31.6 L553.6,31.5 L559.2,31.3 L564.7,31.1 L570.3,31.1 L575.9,31.1 L581.5,30.5
		L587.1,29.4 L592.7,29.0 L598.2,26.7 L603.8,26.2 L609.4,26.1 L615.0,26.0  '/></g>
	</g>
	<g id="gnuplot_plot_2" ><title>pages+cached+noexternal</title>
<g fill="none" color="black" stroke="currentColor" stroke-width="1.00" stroke-linecap="butt" stroke-linejoin="miter">
	<g transform="translate(279.8,485.9)" stroke="none" fill="black" font-family="Arial" font-size="12.00"  text-anchor="end">
		<text><tspan font-family="Arial" >pages+cached+noexternal</tspan></text>
	</g>
</g>
<g fill="none" color="black" stroke="currentColor" stroke-width="1.00" stroke-linecap="butt" stroke-linejoin="miter">
	<path stroke='rgb(  0, 158, 115)'  d='M288.1,482.0 L330.3,482.0 M62.2,418.5 L67.8,418.2 L73.4,417.8 L79.0,417.5 L84.5,417.3 L90.1,417.2
		L95.7,416.9 L101.3,416.8 L106.9,416.5 L112.5,415.9 L118.0,415.7 L123.6,415.6 L129.2,415.6 L134.8,415.4
		L140.4,415.3 L146.0,415.0 L151.5,414.3 L157.1,414.3 L162.7,414.2 L168.3,414.2 L173.9,414.1 L179.5,414.1
		L185.0,413.7 L190.6,413.6 L196.2,413.3 L201.8,413.3 L207.4,412.9 L213.0,412.8 L218.5,412.6 L224.1,412.5
		L229.7,412.5 L235.3,412.4 L240.9,412.4 L246.5,412.3 L252.1,412.0 L257.6,411.7 L263.2,411.6 L268.8,411.5
		L274.4,411.5 L280.0,411.1 L285.6,411.0 L291.1,410.8 L296.7,410.4 L302.3,409.5 L307.9,408.7 L313.5,165.6
		L319.1,161.0 L324.6,160.9 L330.2,160.2 L335.8,159.8 L341.4,159.6 L347.0,159.5 L352.6,155.5 L358.1,154.3
		L363.7,153.5 L369.3,43.4 L374.9,42.4 L380.5,42.1 L386.1,40.7 L391.6,40.3 L397.2,40.0 L402.8,40.0
		L408.4,39.2 L414.0,38.9 L419.6,37.9 L425.1,37.9 L430.7,36.8 L436.3,36.5 L441.9,36.5 L447.5,36.0
		L453.1,35.9 L458.7,35.8 L464.2,35.4 L469.8,35.4 L475.4,35.2 L481.0,35.1 L486.6,35.1 L492.2,34.9
		L497.7,34.7 L503.3,34.6 L508.9,34.5 L514.5,34.5 L520.1,34.3 L525.7,34.1 L531.2,34.0 L536.8,33.9
		L542.4,33.8 L548.0,33.4 L553.6,33.2 L559.2,33.0 L564.7,32.9 L570.3,32.2 L575.9,31.8 L581.5,31.8
		L587.1,31.6 L592.7,31.6 L598.2,31.1 L603.8,27.8 L609.4,27.7 L615.0,27.0  '/></g>
	</g>
	<g id="gnuplot_plot_3" ><title>score p10=3572</title>
<g fill="none" color="black" stroke="currentColor" stroke-width="1.00" stroke-linecap="butt" stroke-linejoin="miter">
	<g transform="translate(529.5,467.9)" stroke="none" fill="black" font-family="Arial" font-size="12.00"  text-anchor="end">
		<text><tspan font-family="Arial" >score p10=3572</tspan></text>
	</g>
</g>
<g fill="none" color="black" stroke="currentColor" stroke-width="1.00" stroke-linecap="butt" stroke-linejoin="miter">
	<path stroke='rgb( 86, 180, 233)'  d='M537.8,464.0 L580.0,464.0  '/></g>
	</g>
	<g id="gnuplot_plot_4" ><title>score median=6500</title>
<g fill="none" color="black" stroke="currentColor" stroke-width="1.00" stroke-linecap="butt" stroke-linejoin="miter">
	<g transform="translate(529.5,485.9)" stroke="none" fill="black" font-family="Arial" font-size="12.00"  text-anchor="end">
		<text><tspan font-family="Arial" >score median=6500</tspan></text>
	</g>
</g>
<g fill="none" color="black" stroke="currentColor" stroke-width="1.00" stroke-linecap="butt" stroke-linejoin="miter">
	<path stroke='rgb(230, 159,   0)'  d='M537.8,482.0 L580.0,482.0  '/></g>
	</g>
<g fill="none" color="#FFFFFF" stroke="rgb(230, 159,   0)" stroke-width="2.00" stroke-linecap="butt" stroke-linejoin="miter">
</g>
<g fill="none" color="black" stroke="currentColor" stroke-width="2.00" stroke-linecap="butt" stroke-linejoin="miter">
</g>
<g fill="none" color="black" stroke="black" stroke-width="1.00" stroke-linecap="butt" stroke-linejoin="miter">
</g>
<g fill="none" color="black" stroke="currentColor" stroke-width="1.00" stroke-linecap="butt" stroke-linejoin="miter">
	<path stroke='black'  d='M62.2,18.1 L62.2,428.0 L615.0,428.0 L615.0,18.1 L62.2,18.1 Z  '/></g>
<g fill="none" color="black" stroke="currentColor" stroke-width="1.00" stroke-linecap="butt" stroke-linejoin="miter">
</g>
</g>
</svg>
